picto/car-sharing-left-framed.svg

<svg class="color-immutable" width="30" height="30" viewBox="0 0 30 30" fill="none" xmlns="http://www.w3.org/2000/svg"><path d="M30 0H0V30H30V0Z" fill="#2D327D"/><path d="M25.5 3C26.325 3 27 3.675 27 4.5V25.5C27 26.325 26.325 27 25.5 27H4.5C3.675 27 3 26.325 3 25.5V4.5C3 3.675 3.675 3 4.5 3H25.5ZM25.5 2.625H4.5C3.46613 2.625 2.625 3.46613 2.625 4.5V25.5C2.625 26.5339 3.46613 27.375 4.5 27.375H25.5C26.5339 27.375 27.375 26.5339 27.375 25.5V4.5C27.375 3.46613 26.5339 2.625 25.5 2.625Z" fill="white"/><path d="M21.4201 16.7357C21.209 16.5247 20.923 16.4062 20.6245 16.4062H14.1405C13.8424 16.4062 13.5561 16.5246 13.3452 16.7357L10.7312 19.3495L6.34387 19.7137C6.14947 19.7297 6 19.8922 6 20.0872V22.4252C6 22.6318 6.16792 22.8 6.37507 22.8H6.78743V22.3688C6.78743 21.1268 7.7955 20.1188 9.03758 20.1188C10.2796 20.1188 11.2875 21.1268 11.2875 22.3688V22.8H18.75V22.3688C18.75 21.1268 19.7579 20.1188 20.9999 20.1188C22.242 20.1188 23.2499 21.1268 23.2499 22.3688V22.8H23.6248C23.8319 22.8 24 22.6318 24 22.4252V19.7815C24 19.4831 23.8814 19.197 23.6703 18.9859L21.4201 16.7357ZM16.9153 17.494L16.913 19.0317C16.9127 19.2387 16.745 19.4061 16.538 19.4061H12.2786C12.1543 19.4061 12.0535 19.3053 12.0535 19.1813C12.0535 19.1214 12.0771 19.0642 12.1195 19.0222L13.9129 17.2284C13.9832 17.1581 14.0787 17.1186 14.1782 17.1186H16.5403C16.7473 17.1186 16.9153 17.2866 16.9153 17.4938V17.494ZM22.4867 19.4062H18.002C17.795 19.4062 17.6271 19.2382 17.6271 19.0312V17.4938C17.6271 17.2866 17.795 17.1186 18.002 17.1186H20.587C20.6865 17.1186 20.7818 17.1581 20.8522 17.2284L22.6456 19.0222C22.688 19.0642 22.7117 19.1214 22.7117 19.1813C22.7117 19.3053 22.6107 19.4062 22.4867 19.4062Z" fill="white"/><path fill-rule="evenodd" clip-rule="evenodd" d="M21.0165 23.3362C20.499 23.3362 20.0791 22.9163 20.0791 22.3988C20.0791 21.8813 20.499 21.4613 21.0165 21.4613C21.5341 21.4613 21.954 21.8812 21.954 22.3988C21.954 22.9163 21.5341 23.3362 21.0165 23.3362ZM20.9955 20.6784C20.0537 20.6784 19.2891 21.443 19.2891 22.3847C19.2891 23.3268 20.0537 24.0911 20.9955 24.0911C21.9373 24.0911 22.7019 23.3268 22.7019 22.3847C22.7019 21.443 21.9373 20.6784 20.9955 20.6784Z" fill="white"/><path fill-rule="evenodd" clip-rule="evenodd" d="M9.03906 23.3362C8.52164 23.3362 8.10164 22.9163 8.10164 22.3988C8.10164 21.8813 8.52164 21.4613 9.03906 21.4613C9.55664 21.4613 9.97664 21.8812 9.97664 22.3988C9.97656 22.9163 9.55656 23.3362 9.03906 23.3362ZM9.03899 20.6924C8.09714 20.6924 7.33289 21.457 7.33289 22.3988C7.33289 23.3409 8.09714 24.1052 9.03899 24.1052C9.98091 24.1052 10.7454 23.3409 10.7454 22.3988C10.7453 21.457 9.98091 20.6924 9.03899 20.6924Z" fill="white"/><path d="M8.21332 7.3812C8.1969 7.614 8.11897 7.8129 7.97954 7.97798C7.79699 8.19435 7.53862 8.3025 7.20435 8.3025C6.84855 8.3025 6.57165 8.17688 6.3738 7.9257C6.2046 7.71143 6.12 7.44375 6.12 7.12283C6.12 6.78653 6.2205 6.50603 6.4215 6.28148C6.6225 6.05798 6.88957 5.94615 7.22287 5.94615C7.5336 5.94615 7.7838 6.04868 7.97347 6.2538C8.10885 6.3984 8.1837 6.56498 8.19802 6.75368H7.71352C7.68682 6.62655 7.62997 6.52838 7.54282 6.45915C7.45567 6.38993 7.34542 6.35535 7.21215 6.35535C6.99885 6.35535 6.83939 6.44505 6.73379 6.62453C6.65482 6.76088 6.61537 6.92805 6.61537 7.1259C6.61537 7.32893 6.65692 7.49813 6.73994 7.6335C6.84554 7.80683 7.00192 7.89345 7.20907 7.89345C7.35675 7.89345 7.47442 7.84988 7.5621 7.76273C7.64977 7.67558 7.70384 7.54845 7.72439 7.38128H8.21332V7.3812Z" fill="white"/><path d="M10.0098 8.24865H9.55458C9.53508 8.18303 9.52533 8.12715 9.52533 8.08103C9.38591 8.22353 9.20591 8.29485 8.98548 8.29485C8.81321 8.29485 8.67888 8.25488 8.58251 8.17485C8.47173 8.0826 8.41638 7.9539 8.41638 7.78883C8.41638 7.5786 8.51126 7.43303 8.70093 7.35203C8.77781 7.31918 8.91933 7.28895 9.12543 7.26128C9.30281 7.23773 9.41328 7.21485 9.45686 7.1928C9.50043 7.17075 9.52226 7.12643 9.52226 7.05975C9.52226 6.91313 9.42483 6.83978 9.23006 6.83978C9.12648 6.83978 9.05088 6.85823 9.00318 6.89513C8.95548 6.93203 8.92398 6.99615 8.90861 7.08735H8.48718C8.50053 6.90075 8.57073 6.75998 8.69793 6.66518C8.82506 6.5703 9.00603 6.5229 9.24086 6.5229C9.50028 6.5229 9.69206 6.5757 9.81611 6.6813C9.87356 6.7305 9.91173 6.7833 9.93071 6.8397C9.94968 6.8961 9.95913 6.98528 9.95913 7.1073C9.95913 7.13295 9.95763 7.24575 9.95456 7.4457C9.95253 7.64768 9.95148 7.76355 9.95148 7.79333C9.95148 7.91535 9.95508 8.00483 9.96221 8.06175C9.96933 8.11875 9.98523 8.181 10.0098 8.24865ZM9.51918 7.43813C9.46173 7.47405 9.35718 7.50218 9.20538 7.52273C9.09873 7.53915 9.02186 7.56015 8.97468 7.5858C8.90801 7.62173 8.87471 7.6827 8.87471 7.7688C8.87471 7.83855 8.89676 7.89285 8.94086 7.93185C8.98496 7.97085 9.04646 7.99028 9.12543 7.99028C9.25668 7.99028 9.36281 7.94415 9.44381 7.85183C9.47253 7.82003 9.49226 7.78695 9.50298 7.7526C9.51378 7.71825 9.51911 7.67288 9.51911 7.61648V7.43813H9.51918Z" fill="white"/><path d="M11.3463 6.54143V6.97366C11.2746 6.96031 11.2166 6.95363 11.1726 6.95363C11.0064 6.95363 10.8844 7.02338 10.8065 7.16281C10.7624 7.24073 10.7403 7.37093 10.7403 7.55348V8.24873H10.2943V6.56911H10.7188V6.87518C10.8398 6.64756 11.0157 6.53371 11.2464 6.53371C11.2751 6.53371 11.3084 6.53626 11.3463 6.54143Z" fill="white"/><path d="M14.1134 6.666H13.6458C13.6366 6.55628 13.5958 6.47243 13.5236 6.41453C13.4513 6.35663 13.35 6.3276 13.2198 6.3276C13.104 6.3276 13.014 6.3504 12.9499 6.39608C12.8859 6.44168 12.8538 6.5055 12.8538 6.58755C12.8538 6.66135 12.8845 6.71468 12.946 6.74753C13.0055 6.78038 13.1562 6.8265 13.3982 6.88598C13.6535 6.94958 13.8304 7.01363 13.9288 7.0782C14.1103 7.19715 14.2011 7.36275 14.2011 7.575C14.2011 7.8078 14.1098 7.99133 13.9273 8.12565C13.7664 8.24355 13.5484 8.3025 13.2736 8.3025C12.9681 8.3025 12.7307 8.23275 12.5615 8.09333C12.3923 7.9539 12.3046 7.75545 12.2985 7.49805H12.7875C12.7947 7.62315 12.827 7.71593 12.8844 7.77645C12.9747 7.87283 13.1106 7.92105 13.292 7.92105C13.4151 7.92105 13.5125 7.89698 13.5842 7.84875C13.6652 7.7934 13.7057 7.71803 13.7057 7.62263C13.7057 7.5273 13.6488 7.45755 13.535 7.41345C13.4724 7.38885 13.3248 7.34423 13.092 7.27965C12.9465 7.23968 12.8326 7.20173 12.7506 7.1658C12.6685 7.12988 12.6029 7.0899 12.5537 7.0458C12.4389 6.94328 12.3814 6.80175 12.3814 6.6213C12.3814 6.40493 12.4711 6.2337 12.6506 6.10755C12.8034 5.99985 13.0018 5.94608 13.2459 5.94608C13.4601 5.94608 13.6396 5.9886 13.7842 6.07373C13.9923 6.19583 14.1021 6.39323 14.1134 6.666Z" fill="white"/><path d="M14.9409 6V6.7998C14.9901 6.7116 15.06 6.64267 15.1508 6.59295C15.2415 6.54322 15.3417 6.51833 15.4515 6.51833C15.676 6.51833 15.837 6.59782 15.9345 6.75675C15.9909 6.849 16.0191 6.99052 16.0191 7.18125V8.24865H15.5745V7.2612C15.5745 7.13813 15.5576 7.05308 15.5237 7.0059C15.4735 6.93615 15.395 6.90127 15.2884 6.90127C15.1479 6.90127 15.0474 6.96277 14.9869 7.08585C14.9685 7.1238 14.9562 7.16535 14.95 7.21042C14.9439 7.25557 14.9408 7.3278 14.9408 7.42732V8.24865H14.4948V6H14.9409Z" fill="white"/><path d="M17.8818 8.24865H17.4265C17.407 8.18303 17.3973 8.12715 17.3973 8.08103C17.2579 8.22353 17.0779 8.29485 16.8574 8.29485C16.6852 8.29485 16.5508 8.25488 16.4545 8.17485C16.3437 8.0826 16.2883 7.9539 16.2883 7.78883C16.2883 7.5786 16.3832 7.43303 16.5729 7.35203C16.6498 7.31918 16.7913 7.28895 16.9974 7.26128C17.1748 7.23773 17.2852 7.21485 17.3288 7.1928C17.3724 7.17075 17.3942 7.12643 17.3942 7.05975C17.3942 6.91313 17.2968 6.83978 17.102 6.83978C16.9984 6.83978 16.9228 6.85823 16.8751 6.89513C16.8274 6.93203 16.7959 6.99615 16.7806 7.08735H16.3591C16.3725 6.90075 16.4427 6.75998 16.5699 6.66518C16.697 6.5703 16.878 6.5229 17.1128 6.5229C17.3722 6.5229 17.564 6.5757 17.6881 6.6813C17.7455 6.7305 17.7837 6.7833 17.8027 6.8397C17.8216 6.8961 17.8311 6.98528 17.8311 7.1073C17.8311 7.13295 17.8296 7.24575 17.8265 7.4457C17.8245 7.64768 17.8234 7.76355 17.8234 7.79333C17.8234 7.91535 17.827 8.00483 17.8342 8.06175C17.8413 8.11875 17.8572 8.181 17.8818 8.24865ZM17.3911 7.43813C17.3337 7.47405 17.2291 7.50218 17.0773 7.52273C16.9707 7.53915 16.8938 7.56015 16.8466 7.5858C16.78 7.62173 16.7467 7.6827 16.7467 7.7688C16.7467 7.83855 16.7687 7.89285 16.8128 7.93185C16.8569 7.97085 16.9184 7.99028 16.9974 7.99028C17.1286 7.99028 17.2348 7.94415 17.3158 7.85183C17.3445 7.82003 17.3642 7.78695 17.3749 7.7526C17.3857 7.71825 17.3911 7.67288 17.3911 7.61648V7.43813H17.3911Z" fill="white"/><path d="M19.2183 6.54143V6.97366C19.1465 6.96031 19.0885 6.95363 19.0445 6.95363C18.8784 6.95363 18.7564 7.02338 18.6784 7.16281C18.6343 7.24073 18.6123 7.37093 18.6123 7.55348V8.24873H18.1663V6.56911H18.5908V6.87518C18.7117 6.64756 18.8876 6.53371 19.1183 6.53371C19.147 6.53371 19.1803 6.53626 19.2183 6.54143Z" fill="white"/><path d="M19.8751 6V6.40147H19.4291V6H19.8751ZM19.8751 6.57217V8.24873H19.4291V6.57217H19.8751Z" fill="white"/><path d="M20.6548 6.57368V6.80903C20.7071 6.73726 20.7558 6.68446 20.8009 6.65063C20.9117 6.56453 21.045 6.52141 21.2008 6.52141C21.3382 6.52141 21.4546 6.55628 21.5499 6.62603C21.6258 6.68138 21.6788 6.75136 21.7091 6.83596C21.7393 6.92056 21.7544 7.03973 21.7544 7.19356V8.24866H21.3099V7.28738C21.3099 7.17976 21.3007 7.10078 21.2823 7.05053C21.2649 7.00643 21.2351 6.97156 21.1931 6.94591C21.1449 6.91823 21.09 6.90436 21.0285 6.90436C20.9609 6.90436 20.8993 6.92078 20.844 6.95356C20.7886 6.98633 20.7476 7.03096 20.7209 7.08736C20.6912 7.15096 20.6762 7.24988 20.6762 7.38421V8.24858H20.2302V6.57368H20.6548Z" fill="white"/><path d="M23.671 6.5691V8.04877C23.671 8.18002 23.6629 8.28487 23.6464 8.36332C23.63 8.44177 23.6018 8.51325 23.5618 8.5779C23.4326 8.78295 23.2009 8.88555 22.8666 8.88555C22.4011 8.88555 22.1463 8.70967 22.1022 8.358H22.5513C22.582 8.49847 22.6903 8.56867 22.8758 8.56867C23.0173 8.56867 23.1163 8.5287 23.1727 8.44867C23.2168 8.38507 23.2388 8.28255 23.2388 8.14102L23.2404 7.93335C23.1256 8.10975 22.9594 8.19787 22.742 8.19787C22.5318 8.19787 22.3642 8.12407 22.2391 7.9764C22.1119 7.8267 22.0483 7.62472 22.0483 7.3704C22.0483 7.11607 22.1119 6.91207 22.2391 6.75825C22.3714 6.59932 22.5451 6.51982 22.7605 6.51982C22.8722 6.51982 22.9655 6.54082 23.0404 6.5829C23.1152 6.6249 23.1839 6.69517 23.2465 6.79357V6.56902H23.671V6.5691ZM22.8605 6.88597C22.7354 6.88597 22.6405 6.93825 22.576 7.04287C22.5237 7.12695 22.4975 7.2336 22.4975 7.36282C22.4975 7.52692 22.5355 7.6515 22.6114 7.73655C22.677 7.81245 22.7626 7.8504 22.8682 7.8504C23.0015 7.8504 23.1015 7.79452 23.1682 7.68277C23.2195 7.59667 23.245 7.48792 23.245 7.35667C23.245 7.1988 23.2056 7.07677 23.1266 6.9906C23.062 6.92077 22.9732 6.88597 22.8605 6.88597Z" fill="white"/></svg>

<svg class="color-immutable" width="30" height="30" viewBox="0 0 30 30" fill="none" xmlns="http://www.w3.org/2000/svg"><g clip-path="url(#a)"><path d="M30 0H0v30h30V0Z" fill="#2D327D"/><path d="M25.5 3c.825 0 1.5.675 1.5 1.5v21c0 .825-.675 1.5-1.5 1.5h-21c-.825 0-1.5-.675-1.5-1.5v-21C3 3.675 3.675 3 4.5 3h21Zm0-.375h-21A1.877 1.877 0 0 0 2.625 4.5v21c0 1.034.841 1.875 1.875 1.875h21a1.877 1.877 0 0 0 1.875-1.875v-21A1.877 1.877 0 0 0 25.5 2.625Z" fill="#fff"/><path d="M21.42 16.736a1.125 1.125 0 0 0-.796-.33h-6.483c-.299 0-.585.119-.796.33l-2.614 2.613-4.387.365a.375.375 0 0 0-.344.373v2.338c0 .207.168.375.375.375h.412v-.431a2.25 2.25 0 0 1 4.5 0v.431h7.463v-.431a2.25 2.25 0 0 1 4.5 0v.431h.375a.375.375 0 0 0 .375-.375v-2.643c0-.299-.119-.585-.33-.796l-2.25-2.25Zm-4.505.758-.002 1.538a.375.375 0 0 1-.375.374h-4.26a.225.225 0 0 1-.159-.384l1.794-1.794c.07-.07.166-.11.265-.11h2.362c.207 0 .375.169.375.376Zm5.572 1.912h-4.485a.375.375 0 0 1-.375-.375v-1.537c0-.207.168-.375.375-.375h2.585c.1 0 .195.04.265.11l1.794 1.793a.225.225 0 0 1-.159.384Z" fill="#fff"/><path fill-rule="evenodd" clip-rule="evenodd" d="M21.017 23.336a.938.938 0 1 1 0-1.875.938.938 0 0 1 0 1.875Zm-.021-2.658a1.707 1.707 0 1 0 .001 3.415 1.707 1.707 0 0 0-.002-3.415ZM9.04 23.336a.938.938 0 1 1 0-1.875.938.938 0 0 1 0 1.875Zm-.001-2.644a1.707 1.707 0 1 0 .002 3.414 1.707 1.707 0 0 0-.002-3.414Z" fill="#fff"/><path d="M8.213 7.381a1.01 1.01 0 0 1-.233.597c-.183.216-.441.325-.776.325-.355 0-.632-.126-.83-.377-.17-.215-.254-.482-.254-.803 0-.336.1-.617.301-.842.201-.223.469-.335.802-.335.31 0 .56.103.75.308.136.144.21.311.225.5h-.484a.49.49 0 0 0-.171-.295.515.515 0 0 0-.33-.104.52.52 0 0 0-.48.27.986.986 0 0 0-.118.5c0 .204.042.373.125.508.106.174.262.26.47.26a.479.479 0 0 0 .352-.13.629.629 0 0 0 .162-.382h.49ZM10.01 8.249h-.455a.606.606 0 0 1-.03-.168.722.722 0 0 1-.54.214c-.172 0-.306-.04-.402-.12a.475.475 0 0 1-.167-.386c0-.21.095-.356.285-.437.077-.033.218-.063.424-.09a1.37 1.37 0 0 0 .332-.07c.043-.021.065-.066.065-.132 0-.147-.097-.22-.292-.22-.104 0-.18.018-.227.055-.048.037-.079.101-.094.192h-.422a.545.545 0 0 1 .21-.422c.128-.095.309-.142.544-.142.26 0 .451.053.575.158.058.05.096.102.115.159a.912.912 0 0 1 .028.267l-.004.339-.004.347c0 .122.004.212.011.269.007.057.023.119.048.187Zm-.49-.81a.866.866 0 0 1-.315.084.757.757 0 0 0-.23.063c-.067.036-.1.097-.1.183 0 .07.022.124.066.163a.27.27 0 0 0 .184.058.403.403 0 0 0 .319-.138.268.268 0 0 0 .059-.1.467.467 0 0 0 .016-.136v-.178ZM11.346 6.541v.433a.996.996 0 0 0-.173-.02.39.39 0 0 0-.367.209c-.044.078-.066.208-.066.39v.696h-.446v-1.68h.425v.306c.12-.227.297-.341.527-.341a.75.75 0 0 1 .1.007ZM14.113 6.666h-.467a.343.343 0 0 0-.122-.251.474.474 0 0 0-.304-.087.46.46 0 0 0-.27.068.222.222 0 0 0-.096.192c0 .073.03.127.092.16.06.032.21.079.452.138.255.064.432.128.53.192a.563.563 0 0 1 .273.497.647.647 0 0 1-.274.55c-.16.119-.379.178-.653.178-.306 0-.543-.07-.712-.21-.17-.14-.257-.338-.263-.595h.489c.007.125.039.218.096.278.09.097.227.145.408.145.123 0 .22-.024.292-.072a.26.26 0 0 0 .122-.226c0-.096-.057-.165-.171-.21a6.007 6.007 0 0 0-.443-.133 2.615 2.615 0 0 1-.341-.114.735.735 0 0 1-.197-.12.54.54 0 0 1-.173-.425c0-.216.09-.387.27-.513.152-.108.35-.162.595-.162.214 0 .394.043.538.128.208.122.318.32.33.592ZM14.94 6v.8a.522.522 0 0 1 .21-.207c.091-.05.192-.075.301-.075.225 0 .386.08.483.239.057.092.085.234.085.424V8.25h-.444V7.26c0-.123-.017-.208-.051-.255-.05-.07-.129-.105-.236-.105a.311.311 0 0 0-.301.185.413.413 0 0 0-.037.124c-.006.046-.01.118-.01.217v.822h-.445V6h.446ZM17.882 8.249h-.456a.605.605 0 0 1-.029-.168.722.722 0 0 1-.54.214c-.172 0-.306-.04-.402-.12a.475.475 0 0 1-.167-.386c0-.21.095-.356.285-.437.077-.033.218-.063.424-.09a1.37 1.37 0 0 0 .332-.07c.043-.021.065-.066.065-.132 0-.147-.097-.22-.292-.22-.104 0-.18.018-.227.055-.048.037-.08.101-.094.192h-.422a.545.545 0 0 1 .21-.422c.128-.095.309-.142.544-.142.26 0 .451.053.575.158.058.05.096.102.115.159a.914.914 0 0 1 .028.267 74.776 74.776 0 0 0-.008.686c0 .122.004.212.011.269.007.057.023.119.048.187Zm-.49-.81a.865.865 0 0 1-.315.084.758.758 0 0 0-.23.063c-.067.036-.1.097-.1.183 0 .07.022.124.066.163a.27.27 0 0 0 .184.058.403.403 0 0 0 .319-.138.268.268 0 0 0 .059-.1.466.466 0 0 0 .016-.136v-.178ZM19.218 6.541v.433a.998.998 0 0 0-.174-.02.39.39 0 0 0-.366.209c-.044.078-.066.208-.066.39v.696h-.446v-1.68h.425v.306c.12-.227.297-.341.527-.341.029 0 .062.002.1.007ZM19.875 6v.401h-.446V6h.446Zm0 .572V8.25h-.446V6.572h.446ZM20.655 6.574v.235a.632.632 0 0 1 .546-.288c.137 0 .254.035.349.105a.438.438 0 0 1 .16.21c.03.085.044.204.044.358v1.055h-.444v-.962a.743.743 0 0 0-.028-.236.211.211 0 0 0-.089-.105.355.355 0 0 0-.35.008.304.304 0 0 0-.122.133.74.74 0 0 0-.045.297v.865h-.446V6.574h.425ZM23.671 6.57v1.479c0 .131-.008.236-.025.314a.661.661 0 0 1-.084.215c-.13.205-.361.308-.695.308-.466 0-.72-.176-.765-.528h.45c.03.14.138.21.324.21.141 0 .24-.04.297-.12.044-.063.066-.165.066-.307l.001-.208a.559.559 0 0 1-.498.265.625.625 0 0 1-.503-.222c-.127-.15-.19-.351-.19-.606 0-.254.063-.458.19-.612a.645.645 0 0 1 .521-.238c.112 0 .205.02.28.063a.606.606 0 0 1 .207.21V6.57h.424Zm-.81.316a.314.314 0 0 0-.285.157.596.596 0 0 0-.079.32c0 .164.038.288.114.374a.323.323 0 0 0 .257.113.327.327 0 0 0 .3-.167.629.629 0 0 0 .077-.326c0-.158-.04-.28-.118-.366a.345.345 0 0 0-.267-.105Z" fill="#fff"/></g><defs><clipPath id="a"><path fill="#fff" d="M0 0h30v30H0z"/></clipPath></defs></svg>
